!! 00000] TT[WS
!!!OTL: Shoucheng hao
!!!ARE: Asia, China, Shanxi Hequ
!! Ethnic Group: Han
!! WII, 249 (2)
!!!SCT: J0773
!!!YEM: Copyright 1995, estate of Helmut Schaffrath.
**kern
*ICvox
*Ivox
*M2/4
*k[b-e-]
*B-:
{8bb-
4bb-
8ccc
=1
8ddd
8fff
8ddd
8ccc
=2
8ddd
8ccc
8ddd
8ccc
=3
8bb-
4bb-
8gg}
=4
{8bb-
4bb-
8ccc
=5
8ddd
8fff
8ddd
8ccc
=6
8ddd
8ccc
8ddd
8ccc
=7
4.bb-
8gg}
=8
{8fff
8ddd
8fff
8ddd
=9
8ccc
8ddd
4bb-
=10
8bb-
8gg
8bb-
8gg
=11
8bb-
8gg
4ff}
=12
{8bb-
8gg
4ff
=13
8ff
8ddd
8ccc
8ddd
=14
4ff
4ff
=15
8gg
8ff
8dd
8cc
=16
8bb-
8bb-
8gg
8ccc
=17
2bb-}
==
!!!AGN: Xiaodiao. Laodong, Xinminge
!!!ONB: ESAC (Essen Associative Code) Database: CHINA
!!!AMT: simple duple
!!!AIN: vox
!!!EED: Helmut Schaffrath
!!!EEV: 1.0
*-
